images/home.svg

<svg fill="none" height="16" viewBox="0 0 16 16" width="16" xmlns="http://www.w3.org/2000/svg"><g stroke="#111" stroke-linecap="round" stroke-linejoin="round" stroke-width="1.33333"><path d="m2 5.99998 6-4.66667 6 4.66667v7.33332c0 .3536-.1405.6928-.3905.9428-.2501.2501-.5892.3905-.9428.3905h-9.33337c-.35362 0-.69276-.1404-.94281-.3905-.25004-.25-.39052-.5892-.39052-.9428z"/><path d="m6 14.6667v-6.6667h4v6.6667"/></g></svg>

<svg width="16" height="16" viewBox="0 0 16 16" fill="none" xmlns="http://www.w3.org/2000/svg">
<path d="M2 5.99998L8 1.33331L14 5.99998V13.3333C14 13.6869 13.8595 14.0261 13.6095 14.2761C13.3594 14.5262 13.0203 14.6666 12.6667 14.6666H3.33333C2.97971 14.6666 2.64057 14.5262 2.39052 14.2761C2.14048 14.0261 2 13.6869 2 13.3333V5.99998Z" stroke="#111111" stroke-width="1.33333" stroke-linecap="round" stroke-linejoin="round"/>
<path d="M6 14.6667V8H10V14.6667" stroke="#111111" stroke-width="1.33333" stroke-linecap="round" stroke-linejoin="round"/>
</svg>
